X: 429
T: Miss Rattray
O: Athole
R: reel
Z: 2019 John Chambers <jc:trillian.mit.edu>
S: Barbara McOwen 6/01
M: C|
L: 1/8
K: D
"A"|: c |\
"D"d2AG FDDF | "A7"GEEA "D"FDDc | "Bm"d2AG "G"FDDg | "A7"fdec "D"d2d :|
"B1"[|] A |\
"D"defg "D7"affa | "G"beed "A7"cAAc | "D"defg "Bm"affa | "A7"beec "D"d2d ||
"B2"[|] A |\
"D"defg "Bm"affa | "Em7"beed "A7"cAA=c | "G"BGGB "Em7"AFAg | "A7"fdec "D"d2d |]

%%sep 1 1 500

